src/assets/filled/Timer1.svg

<svg width="24" height="24" viewBox="0 0 24 24"  xmlns="http://www.w3.org/2000/svg">
<path d="M12.0001 4.65039C7.22008 4.65039 3.33008 8.54039 3.33008 13.3204C3.33008 18.1004 7.22008 22.0004 12.0001 22.0004C16.7801 22.0004 20.6701 18.1104 20.6701 13.3304C20.6701 8.55039 16.7801 4.65039 12.0001 4.65039ZM12.7501 13.0004C12.7501 13.4104 12.4101 13.7504 12.0001 13.7504C11.5901 13.7504 11.2501 13.4104 11.2501 13.0004V8.00039C11.2501 7.59039 11.5901 7.25039 12.0001 7.25039C12.4101 7.25039 12.7501 7.59039 12.7501 8.00039V13.0004Z" />
<path d="M14.8899 3.45H9.10989C8.70989 3.45 8.38989 3.13 8.38989 2.73C8.38989 2.33 8.70989 2 9.10989 2H14.8899C15.2899 2 15.6099 2.32 15.6099 2.72C15.6099 3.12 15.2899 3.45 14.8899 3.45Z" />
</svg>

<?xml version="1.0" encoding="UTF-8"?>
<svg width="24" height="24" viewBox="0 0 24 24" xmlns="http://www.w3.org/2000/svg">
 <path d="m12 4.6504c-4.78 0-8.67 3.89-8.67 8.67 0 4.78 3.89 8.68 8.67 8.68 4.78 0 8.67-3.89 8.67-8.67 0-4.78-3.89-8.68-8.67-8.68zm0.75 8.35c0 0.41-0.34 0.75-0.75 0.75s-0.75-0.34-0.75-0.75v-5c0-0.41 0.34-0.75 0.75-0.75s0.75 0.34 0.75 0.75v5z"/>
 <path d="m14.89 3.45h-5.78c-0.4 0-0.72-0.32-0.72-0.72s0.32-0.73 0.72-0.73h5.78c0.4 0 0.72 0.32 0.72 0.72s-0.32 0.73-0.72 0.73z"/>
</svg>
